build/img/zigzag-tablet-catalog.svg

<svg width="768" height="24" viewBox="0 0 768 24" fill="none" xmlns="http://www.w3.org/2000/svg">
<path d="M749.784 0C740.142 0 740.142 9.88235 730.567 9.88235C720.992 9.88235 720.925 0 711.35 0C701.776 0 701.709 9.88235 692.134 9.88235C682.492 9.88235 682.492 0 672.85 0C663.209 0 663.209 9.88235 653.634 9.88235C643.992 9.88235 643.992 0 634.417 0C624.776 0 624.776 9.88235 615.201 9.88235C605.626 9.88235 605.358 0 595.783 0C586.142 0 586.142 9.88235 576.567 9.88235C566.992 9.88235 566.858 0 557.283 0C547.642 0 547.642 9.88235 538.067 9.88235C528.425 9.88235 528.425 0 518.783 0C509.142 0 509.142 9.88235 499.567 9.88235C489.925 9.88235 489.925 0 480.35 0C470.776 0 470.642 9.88235 461 9.88235C451.358 9.88235 451.358 0 441.783 0C432.142 0 432.142 9.88235 422.567 9.88235C412.925 9.88235 412.925 0 403.283 0C393.642 0 393.642 9.88235 384.067 9.88235C374.425 9.88235 374.425 0 364.85 0C355.209 0 355.209 9.88235 345.634 9.88235C335.992 9.88235 335.992 0 326.417 0C316.776 0 316.776 9.88235 307.134 9.88235C297.492 9.88235 297.492 0 287.85 0C278.209 0 278.209 9.88235 268.567 9.88235C258.925 9.88235 258.925 0 249.283 0C239.642 0 239.642 9.88235 230 9.88235C220.358 9.88235 220.358 0 210.717 0C201.075 0 201.075 9.88235 191.433 9.88235C181.791 9.88235 181.791 0 172.15 0C162.508 0 162.508 9.88235 152.933 9.88235C143.291 9.88235 143.291 0 133.65 0C124.008 0 124.008 9.88235 114.366 9.88235C104.724 9.88235 104.724 0 95.0826 0C85.4409 0 85.4409 9.88235 75.7991 9.88235C66.1574 9.88235 66.1574 0 56.5157 0C47.1417 0 47.1417 9.88235 37.5 9.88235C27.8583 9.88235 27.8583 0 18.2835 0C8.70869 0 8.64174 9.88235 -1 9.88235V24H769V9.88235C759.358 9.88235 759.358 0 749.784 0Z" fill="white"/>
</svg>

<svg width="768" height="24" fill="none" xmlns="http://www.w3.org/2000/svg"><path d="M749.784 0c-9.642 0-9.642 9.882-19.217 9.882S720.925 0 711.35 0c-9.574 0-9.641 9.882-19.216 9.882-9.642 0-9.642-9.882-19.284-9.882-9.641 0-9.641 9.882-19.216 9.882-9.642 0-9.642-9.882-19.217-9.882-9.641 0-9.641 9.882-19.216 9.882-9.575 0-9.843-9.882-19.418-9.882-9.641 0-9.641 9.882-19.216 9.882-9.575 0-9.709-9.882-19.284-9.882-9.641 0-9.641 9.882-19.216 9.882-9.642 0-9.642-9.882-19.284-9.882-9.641 0-9.641 9.882-19.216 9.882-9.642 0-9.642-9.882-19.217-9.882-9.574 0-9.708 9.882-19.35 9.882-9.642 0-9.642-9.882-19.217-9.882-9.641 0-9.641 9.882-19.216 9.882-9.642 0-9.642-9.882-19.284-9.882-9.641 0-9.641 9.882-19.216 9.882-9.642 0-9.642-9.882-19.217-9.882-9.641 0-9.641 9.882-19.216 9.882-9.642 0-9.642-9.882-19.217-9.882-9.641 0-9.641 9.882-19.283 9.882-9.642 0-9.642-9.882-19.284-9.882-9.641 0-9.641 9.882-19.283 9.882-9.642 0-9.642-9.882-19.284-9.882-9.641 0-9.641 9.882-19.283 9.882-9.642 0-9.642-9.882-19.283-9.882-9.642 0-9.642 9.882-19.284 9.882S181.791 0 172.15 0c-9.642 0-9.642 9.882-19.217 9.882-9.642 0-9.642-9.882-19.283-9.882-9.642 0-9.642 9.882-19.284 9.882S104.724 0 95.083 0C85.44 0 85.44 9.882 75.799 9.882S66.157 0 56.516 0C47.142 0 47.142 9.882 37.5 9.882 27.858 9.882 27.858 0 18.284 0 8.709 0 8.642 9.882-1 9.882V24h770V9.882c-9.642 0-9.642-9.882-19.216-9.882z" fill="#fff"/></svg>
